X: 13474
T: Flower Of Kristiansand, The
R: waltz
M: 3/4
K: Amajor
|:"A"e2d2c2|"D/A"F6|"A"E(DD2)C2|D(EE4)|"A"e2d2c2|"D/A"F6|
F2G(AA2)|"E"B6|"A"e2d2c2|"D/A"F6|"A"E(DD2)C2|D(EE4)|
"D/A"F2G2A2|e4d2|"A"c4"E"B2|1 "A"A4 ee:|2 "A"A4cc||
"A"c2d2c2|"E"B6|G(AA2)B2|"A"c(AA2)G2|"D"F2G(AA2)|"A"E4cd|
e2d(cc2)|"E"B4cc|"A"c2d2c2|"E"B6|G(AA2)B2|"A"c(AA2)G2|
"D"F2G(AA2)|e4d2|"A"c4"E"B2|"A"A4cc|"A"c2d2c2|"E"B6|
G(AA2)B2|"A"c(AA2)G2|"D"F2G(AA2)|"A"E4cd|e2d(cc2)|"E"B4ee|
"A"e2d2c2|"D/A"F6|"A"E(DD2)C2|D(EE4)|"D/A"F2G2A2|e4d2|"A"c4"E"B2|"A"A4z2|

